X: 29072
T: Neili's
R: polka
M: 2/4
K: Dmajor
|:"CD: Dual - song" f2 fg|ed cA|f2 fg|e/d/c d2|
f2 fg|ed cA|Ac ef|ge d2:|
|:ed cA|ed cA|Ac ef|ge d2|
ed cA|ed cA|Ac ef|ge d2:|
|:ef ge|ed cd|ef ge|ec d2|
ef ge|ed cA|Ac ef|ge d2:|

